X:516
T:Turtle Mountain Two-Step
M:2/2
L:1/4
C:Gordie Carnahan, 1990
K:D
z D F G|:"D"A F/2G/2 A f|d F A d|"G"B>c B G|"Em"E>G B d|
"A"c c/2d/2 c B|A>c e g|"D"f>g f d|A D F G||
"D"A F/2G/2 A f|d F A d|"G"B>c B G|"Em"E>G B d|
"A"c c/2d/2 c B|A>e c A|"D"d4-|d d c =c||
"G"B>G B d|g b a g|"D"f>g f d|A F A d|
"A"c c/2d/2 e a|g>e c B|"D"A>f a f|d d c =c||
"G"B>G B d|g b a g|"D"f>g f d|A F A d|
"A"c c/2d/2 e a|g>e c e|[1"D"d4-|d D F G:|[2"D"d4-|d z z2||

